X:4
T:Paddy Fahy's 2
R:Reel
C:Paddy Fahy
S:Paddy Fahy
M:4/4
L:1/8
K:C
c2cB {d}cGEG | FADF EFGA | _B3G c=Bcd | egdc BGAB |
c3B {d}cGEG | F2DF EFGA | _B2GA =BGFE | DG,B,D C2 EG :|
(cBc)e g^fag | ^fgec G=FEG | F2 DF EFGA | Bcde fdBd |
(Bc{d}c)e g^fag | ^fgec G=FEG | F2 DF  {F}E2 CE | DG,B,D C4 :|
%  ABC2Win Version 2.1 3/22/97
